X: 24
T:The Enchanted Lady
M:C|
L:1/8
C:Traditional, arr. Roger Landes
S:Bothy Band
R:Reel
K:D
{B}AAAG FAdB|AGFD EAA/2A/2A|{B}AAAG FAdB|1ABde fedB:|2ABde fdde||f/2f/2f
df efde|f/2f/2fdf edBd|1f/2f/2fdf efdB|ABAG FDD/2D/2D:|2A/2A/2AAB dfbf|a
feg fdd/2d/2d||

T:Francis John McGovern's
M:C|
L:1/8
S:Charlie Lennon/Stockton's Wing
R:Reel
K:G
BBBA GEDE|GGBG cGBG|BBBA GEDE|EAAG A2 GA:||
B/2c/2d ef ggef|gedc BGGG|B/2c/2d ef ggfg|eaaa aged|B/2c/2d ef ggef|gedc
 BGGA|BBBA GEDE|EAAG A2 GA||

